X: 308
U:~=!turn!
M:C
L:1/8
K:C
e/f/ | g<c~g>e g>c~g>e | g<c~g>e f<dd(e/f/) | g<c~g>e g<c~g>e | f<a{/a}g>f ecc :|
e | G>cE>c G>ce>c | G>cE>c d<DD>c | G>cE>c G>ce>c | (f/g/a) g>f e<A~A>e |


